travel/img/icons/logo.svg

<svg width="30" height="30" viewBox="0 0 30 30" fill="none" xmlns="http://www.w3.org/2000/svg">
<path d="M2.59123 7.8325C2.83304 7.525 3.15151 7.10875 3.40654 6.81125C4.17032 5.99125 4.26942 5.88375 4.96449 5.2775C5.17063 5.1175 5.41509 4.925 5.65426 4.74375C3.89018 6.15625 3.66554 7.72 5.28427 8.68625C5.28163 8.68625 5.28163 8.68625 5.28163 8.68875C7.54521 9.97875 12.5058 9.7 16.4198 8.0475C20.211 6.4475 21.6103 4.15875 19.7392 2.79875C18.0967 2.5075 16.1384 2.47375 14.0664 2.73625L13.851 2.4L14.0294 1.8425C15.2477 1.73875 16.4053 1.76375 17.4043 1.925C17.6461 1.96375 17.9646 2.03 18.2024 2.0775C18.6623 2.18375 18.912 2.2475 19.212 2.33875C19.5185 2.425 19.7802 2.51125 20.2361 2.67125C20.6827 2.8375 20.8756 2.9125 21.2337 3.08125C21.6348 3.25433 22.0244 3.4501 22.4005 3.6675C25.3817 5.44125 23.5277 8.6775 18.2672 10.895C13.0211 13.105 6.33611 13.4525 3.34047 11.7C3.33915 11.6975 3.33518 11.695 3.32725 11.6925H3.33254C1.69663 10.7125 1.52484 9.29 2.59123 7.8325ZM16.2401 20.2325L16.1978 18.24L14.7007 16.665C9.75461 17.725 4.89313 17.4975 2.18952 15.9913C2.18027 15.9812 2.1578 15.9713 2.14855 15.9613C0.618354 15.07 0.24043 13.92 0.355393 12.67C-0.00271022 14.4987 -0.0317813 15.1587 0.0197538 16.7237C0.0831817 17.7037 0.681782 18.6075 1.88559 19.32L1.89484 19.33C4.77684 21.025 10.7814 21.3925 16.2401 20.2325ZM22.4838 22.5138C15.5028 25.1625 6.76557 25.3188 2.97047 22.8675C3.38032 23.815 3.93798 24.6989 4.62488 25.49C8.10813 27.74 16.1278 27.5963 22.5327 25.165C26.2815 23.7437 28.6469 21.8525 29.2679 20.08L29.4424 19.5462C29.856 18.1938 29.9339 17.0675 30 16.065C29.9247 18.2413 27.2145 20.7162 22.4838 22.5138ZM7.07346 27.615C7.29282 27.8125 7.98259 28.6138 11.4777 29.4988C12.4225 29.6963 14.8011 30.33 19.1948 29.4088L19.2212 29.03L18.8737 28.515C14.7971 29.4275 10.2686 29.1225 7.07346 27.615ZM17.1611 11.8538L20.873 14.515C20.873 14.515 21.6672 15.0562 20.9179 15.4362C20.1713 15.8125 18.2539 16.7337 18.2539 16.7337L16.3604 16.065L15.4103 16.465L17.0858 17.8412L17.099 19.9825L18.0835 19.5688L18.7363 17.76C18.7363 17.76 20.7409 17.03 21.5363 16.755C22.3358 16.4862 22.2288 17.4062 22.2288 17.4062L21.835 21.795L23.1432 21.245L25.2971 15.3237C25.2971 15.3237 26.4388 14.7987 27.2422 14.3375C28.0443 13.8763 28.3192 13.1112 28.3192 13.1112C28.3192 13.1112 27.5369 12.7925 26.6357 13.0487C25.7345 13.3025 24.5597 13.755 24.5597 13.755L18.4654 11.3062L17.1611 11.8538ZM9.30797 3.43375L11.8279 5.3325L12.5164 5.235L11.1447 3.53125C11.1447 3.53125 10.8461 3.17875 11.2478 3.095C11.6522 3.01 12.6749 2.8125 12.6749 2.8125L13.444 3.39375L13.962 3.32125L13.3753 2.43875L13.6845 1.46L13.1837 1.52875L12.5904 2.27375C12.5904 2.27375 11.5491 2.36625 11.1395 2.39875C10.7272 2.42875 10.9042 2.01 10.9042 2.01L11.6944 0L11.002 0.09625L9.17848 2.6075C9.17848 2.6075 8.57063 2.7125 8.1306 2.83125C7.68924 2.94875 7.45667 3.27125 7.45667 3.27125C7.45667 3.27125 7.78042 3.51875 8.23631 3.51C8.69616 3.50125 9.30797 3.43375 9.30797 3.43375ZM21.7623 27.8312L20.1317 27.025L19.7564 27.1488L20.7224 27.9662C20.7224 27.9662 20.9285 28.1325 20.7118 28.2212C20.4951 28.3088 19.9427 28.5238 19.9427 28.5238L19.4868 28.3313L19.2159 28.4237L19.5952 28.8062L19.5582 29.365L19.841 29.2725L20.0524 28.8188C20.0524 28.8188 20.6259 28.6575 20.8545 28.6C21.0818 28.5412 21.0302 28.7938 21.0302 28.7938L20.8148 30L21.1915 29.8762L21.9301 28.2812C21.9301 28.2812 22.2565 28.16 22.4904 28.0487C22.7243 27.9375 22.8168 27.7325 22.8168 27.7325C22.8168 27.7325 22.6093 27.625 22.353 27.6787C22.0953 27.73 21.7623 27.8312 21.7623 27.8312Z" fill="white"/>
</svg>

<svg viewBox="0 0 30 30" fill="none" xmlns="http://www.w3.org/2000/svg"><path d="M2.591 7.832c.242-.307.56-.723.816-1.02.763-.82.862-.928 1.557-1.535.207-.16.451-.352.69-.533-1.764 1.412-1.988 2.976-.37 3.942-.002 0-.002 0-.002.003 2.263 1.29 7.224 1.011 11.138-.642 3.791-1.6 5.19-3.888 3.32-5.248-1.643-.292-3.602-.325-5.674-.063l-.215-.336.178-.557c1.219-.104 2.376-.08 3.375.082.242.039.56.105.798.153a16.562 16.562 0 0 1 2.034.593c.447.167.64.242.998.41.4.173.79.37 1.166.587 2.982 1.773 1.128 5.01-4.133 7.227-5.246 2.21-11.93 2.558-14.927.805 0-.002-.005-.005-.013-.007h.006c-1.636-.98-1.808-2.403-.742-3.86Zm13.65 12.4-.043-1.992-1.497-1.575c-4.946 1.06-9.808.832-12.511-.674-.01-.01-.032-.02-.041-.03C.619 15.07.24 13.92.355 12.67c-.358 1.829-.387 2.489-.335 4.054.063.98.662 1.884 1.866 2.596l.009.01c2.882 1.695 8.886 2.063 14.345.903Zm6.243 2.282c-6.981 2.649-15.718 2.805-19.514.354.41.947.968 1.83 1.655 2.622 3.483 2.25 11.503 2.106 17.908-.325 3.748-1.421 6.114-3.313 6.735-5.085l.174-.534c.414-1.352.492-2.479.558-3.481-.075 2.176-2.785 4.651-7.516 6.449Zm-15.41 5.101c.219.198.909.999 4.404 1.884.944.197 3.323.831 7.717-.09l.026-.379-.347-.515c-4.077.912-8.605.607-11.8-.9ZM17.16 11.854l3.712 2.661s.794.541.045.921c-.747.377-2.664 1.298-2.664 1.298l-1.894-.669-.95.4 1.676 1.376.013 2.142.985-.414.652-1.809s2.005-.73 2.8-1.005c.8-.269.693.651.693.651l-.394 4.389 1.308-.55 2.154-5.921s1.142-.525 1.945-.986c.802-.462 1.077-1.227 1.077-1.227s-.782-.319-1.683-.062c-.901.254-2.076.706-2.076.706l-6.095-2.449-1.304.548Zm-7.853-8.42 2.52 1.898.688-.097-1.371-1.704s-.299-.352.103-.436a140.72 140.72 0 0 1 1.427-.283l.769.582.518-.073-.587-.882.31-.979-.501.069-.594.745s-1.04.092-1.45.125c-.413.03-.236-.389-.236-.389l.79-2.01-.692.096-1.824 2.511s-.607.105-1.047.224c-.442.118-.674.44-.674.44s.323.248.78.239c.46-.009 1.071-.076 1.071-.076ZM21.762 27.83l-1.63-.806-.376.124.966.817s.206.166-.01.255c-.217.088-.77.303-.77.303l-.455-.193-.271.093.38.382-.038.559.283-.092.211-.454s.574-.162.803-.219c.227-.059.175.194.175.194L20.815 30l.377-.124.738-1.595s.326-.121.56-.232a.716.716 0 0 0 .327-.316s-.208-.108-.464-.054c-.258.051-.59.152-.59.152Z" fill="#fff"/></svg>
